X: 38885
T: Sunnyside, The
R: jig
M: 6/8
K: Gmajor
|:D|G2B BAG|D2B BAG|E2c cAG|FAd DEF|
G2B BAG|D2B BAG|E2c FAd|AGF G2:|
|:A|B2B BAG|B2g ged|c2g ged|c2c ABc|
B2B BAG|B2g ged|c2G A2B|AGF G2:|

